X:1237
T:Battle of Aughrim march
M:2/4
L:1/8
S:120 Favorite Irish Session Tunes
R:march
N:Douglas Cole St. Paul Slow Session
K:Ador
|: "am"EA A B/d/| "am(C)"ed cA| "G"BG G/F/G/A/| "em"B A/G/ ED|
"am"EA A B/d/| "am(C)"e e/d/ e a/g/| "G(em)"a/g/e/d/ "em(G)"B/e/d/B/|
"am"A2 A2 :|
|: "am"a/b/a/g/ e f/g/| "am(bm)"a/b/a/g/ e f/g/| "am(C)"a a/f/ g g/e/|
"G(D)"d B G2|
"am"a/b/a/g/ e f/g/| "am(bm)"a/b/a/g/ e e/d/| "G(em)"Be "em(G)"dB|
"em(am)"A2 A2 :|


